X:7461
T:The Wexford Reel
O:england
R:Reel
S:Paddy Canny, Clare (fiddle)
H:'g2' and 'B2' in bar 1 dramatic slides
D:Home tape of unknown provenance
N:As played
M:4/4
K:C
|: g2dc B2GF | DG~G2 DGBG | g2dc B2GF | DF~F2 (3.D.D.F FG |
g^fdc BGAG | DFGB g3g | {a}g^f (3.g.g.e =fdec |1 dBGF DGG2 :|2 dBGF DGGA ||
|: _B2GA Bcdc | _BGGB (3dcB GA | (3._B.B.B GA Bcdc | _BGAF DEFA |
{c}_BAGA Bcdc | _BFGB g3g | {a}g^f (3.g.g.e =fdec |1 d_BGF DGGA :|2 d_BGF DGG2 ||
Bernie Stocks (B.Stocks@ulst.ac.uk) 20/2/97


